X:1
T:[ID 1-95a]
T:[ID 1-95a]
T:Bezeichnung standardisiert: Sesken Sesken
T:Urheber unbekannt Datum in der hier transkribierten schriftlichen Quelle: vermutlich vor 1767
C:Urheber unbekannt
C:Datum in der hier transkribierten schriftlichen Quelle: vermutlich vor 1767
L:1/8
M:2/4
K:G
V:1 treble 
V:1
 d/c/ | BcdB | e2 d2 | c2 B2 | A(3G/A/B/ Ae/c/ | BcdB | efgc | c2 B2 | G3 :: G/A/ | A2 A2 | A3 B | %12
 GFEA | GFEA | B^cde | ^cAdg | f2 e2 | d3 :| %18

